svg/quality_high.svg

<svg xmlns="http://www.w3.org/2000/svg" viewBox="0 0 24 24"><path d="M14.5 13.5h2v-3h-2M18 14a1 1 0 0 1-1 1h-.75v1.5h-1.5V15H14a1 1 0 0 1-1-1v-4a1 1 0 0 1 1-1h3a1 1 0 0 1 1 1m-7 5H9.5v-2h-2v2H6V9h1.5v2.5h2V9H11m8-5H5c-1.11 0-2 .89-2 2v12a2 2 0 0 0 2 2h14a2 2 0 0 0 2-2V6a2 2 0 0 0-2-2"/></svg>

<?xml version="1.0" encoding="UTF-8"?><!DOCTYPE svg PUBLIC "-//W3C//DTD SVG 1.1//EN" "http://www.w3.org/Graphics/SVG/1.1/DTD/svg11.dtd"><svg xmlns="http://www.w3.org/2000/svg" xmlns:xlink="http://www.w3.org/1999/xlink" version="1.1" id="mdi-quality-high" width="24" height="24" viewBox="0 0 24 24"><path d="M14.5,13.5H16.5V10.5H14.5M18,14A1,1 0 0,1 17,15H16.25V16.5H14.75V15H14A1,1 0 0,1 13,14V10A1,1 0 0,1 14,9H17A1,1 0 0,1 18,10M11,15H9.5V13H7.5V15H6V9H7.5V11.5H9.5V9H11M19,4H5C3.89,4 3,4.89 3,6V18A2,2 0 0,0 5,20H19A2,2 0 0,0 21,18V6C21,4.89 20.1,4 19,4Z" /></svg>
